images/svg/infographic-shore.svg

<svg width="90" height="90" viewBox="0 0 90 90" fill="none" xmlns="http://www.w3.org/2000/svg">
<g clip-path="url(#clip0_334_212)">
<path fill-rule="evenodd" clip-rule="evenodd" d="M62.6137 38.1592L62.4974 38.2756L62.3345 38.4152L62.1251 38.6479C62.032 38.7875 61.9389 38.9271 61.8459 39.09C61.7761 39.183 61.7295 39.2994 61.683 39.3924L61.6132 39.6251L61.5434 39.8578L61.5201 39.9741L61.4969 40.0672C61.1944 41.6494 60.3567 43.0455 59.1468 44.046C57.9136 45.0698 56.3779 45.605 54.7724 45.605C53.1902 45.605 51.6313 45.0698 50.3981 44.046C49.1882 43.0455 48.3738 41.6494 48.0713 40.1137L48.0015 39.8345L47.9317 39.5553L47.9084 39.5088L47.8852 39.439C47.8154 39.2994 47.7688 39.183 47.699 39.09C47.6292 38.9271 47.5129 38.7875 47.4198 38.6479L47.2802 38.4617L47.1639 38.3687L47.001 38.2058L46.9312 38.1592C46.7916 38.0429 46.652 37.9498 46.5124 37.88C46.396 37.8102 46.2797 37.7637 46.1633 37.7172L46.0005 37.6474L45.7213 37.5775L45.5584 37.531C45.4886 37.531 45.3955 37.5077 45.3257 37.5077L45.1396 37.4845H44.8603L44.6742 37.5077C44.6044 37.5077 44.5113 37.531 44.4415 37.531L44.1158 37.6241L43.9064 37.6706L43.8366 37.7172C43.7202 37.7637 43.6039 37.8102 43.4875 37.88C43.3479 37.9731 43.1851 38.0662 43.0687 38.1592L42.9291 38.2756L42.7662 38.4385L42.6266 38.5781L42.5801 38.6479C42.4638 38.7875 42.3707 38.9271 42.2776 39.09C42.2311 39.183 42.1845 39.2994 42.1147 39.439L42.0915 39.5088L41.9751 39.8578L41.9286 40.1137C41.6261 41.6494 40.7885 43.0455 39.6018 44.046C38.3686 45.0698 36.8097 45.605 35.2275 45.605C33.622 45.605 32.0863 45.0698 30.8531 44.046C29.6432 43.0455 28.8055 41.6494 28.5031 40.0672L28.4333 39.7647L28.3634 39.5553L28.2936 39.3924C28.2704 39.2994 28.2006 39.183 28.154 39.0667C28.061 38.9271 27.9679 38.7875 27.8516 38.6479L27.7119 38.4617L27.5491 38.3221L27.3862 38.1592C27.2466 38.0429 27.107 37.9498 26.9441 37.88C26.8278 37.8102 26.7114 37.7637 26.6184 37.7172L26.3857 37.6241L26.0367 37.531H26.0134C25.9203 37.531 25.8505 37.5077 25.7807 37.5077L25.5946 37.4845H25.2921L25.1059 37.5077C25.0361 37.5077 24.9663 37.531 24.8733 37.531L24.5475 37.6241L24.3614 37.6706L24.2683 37.7172C24.152 37.7637 24.0356 37.8102 23.9426 37.88C23.7797 37.9731 23.6401 38.0662 23.5005 38.1592L23.3841 38.2756L23.2213 38.4152L23.0584 38.6013L23.0118 38.6479C22.9188 38.7875 22.8257 38.9271 22.7326 39.09C22.6628 39.183 22.6163 39.2994 22.5698 39.439L22.5 39.6019L22.4301 39.8578L22.3836 40.1137C22.0811 41.6494 21.2435 43.0455 20.0336 44.046C18.8004 45.0698 17.2647 45.605 15.6592 45.605C14.077 45.605 12.518 45.0698 11.2849 44.046C10.0749 43.0222 9.21402 41.6029 8.9348 40.0207C8.63232 38.3454 7.00357 37.2285 5.32829 37.531C3.653 37.8335 2.53615 39.4622 2.83863 41.1375C3.39706 44.1391 4.97927 46.8381 7.32932 48.7926C9.67937 50.7471 12.6111 51.8175 15.6592 51.8175C18.7306 51.8175 21.639 50.7471 23.9891 48.7926C24.245 48.5832 24.501 48.3506 24.7337 48.1179L25.4317 47.4431L26.1297 48.1179C26.3857 48.3506 26.6416 48.5832 26.8976 48.7926C29.2476 50.7471 32.1561 51.8175 35.2275 51.8175C38.2755 51.8175 41.2073 50.7471 43.5573 48.7926C43.8133 48.5832 44.0692 48.3506 44.3019 48.1179L45 47.4431L45.698 48.1179C45.9307 48.3506 46.1866 48.5832 46.4426 48.7926C48.7926 50.7471 51.7244 51.8175 54.7724 51.8175C57.8438 51.8175 60.7523 50.7471 63.1023 48.7926C63.3583 48.5832 63.6142 48.3506 63.8702 48.1179L64.5682 47.4431L65.243 48.1179C65.4989 48.3506 65.7549 48.5832 66.0108 48.7926C68.3609 50.7471 71.2693 51.8175 74.3407 51.8175C77.3888 51.8175 80.3205 50.7471 82.6706 48.7926C85.0206 46.8381 86.6028 44.1391 87.1613 41.1375C87.4638 39.4622 86.3469 37.8335 84.6716 37.531C82.9963 37.2285 81.3676 38.3454 81.0651 40.0207C80.7859 41.6029 79.925 43.0222 78.7151 44.046C77.4819 45.0698 75.9229 45.605 74.3407 45.605C72.7352 45.605 71.1995 45.0698 69.9663 44.046C68.7564 43.0455 67.9188 41.6494 67.6163 40.1137L67.5698 39.8345L67.5 39.5786L67.4302 39.4157C67.3836 39.2994 67.3371 39.183 67.2673 39.0667C67.1742 38.9271 67.0811 38.7642 66.9648 38.6479L66.8717 38.5315L66.7321 38.3687L66.546 38.2058L66.4994 38.1592C66.3598 38.0662 66.2202 37.9498 66.0573 37.88C65.941 37.8102 65.8479 37.7637 65.7316 37.7172L65.5687 37.6474L65.2895 37.5775L65.1266 37.531C65.0336 37.531 64.9638 37.5077 64.894 37.5077L64.7078 37.4845H64.4053L64.2192 37.5077C64.1494 37.5077 64.0796 37.531 63.9865 37.531L63.684 37.6008L63.4746 37.6706L63.3815 37.7172C63.2652 37.7637 63.1721 37.8102 63.0558 37.88C62.8929 37.9498 62.7533 38.0662 62.6137 38.1592ZM12.6111 66.9648C13.1695 69.9664 14.775 72.6887 17.1018 74.6199C19.4519 76.5744 22.3836 77.6448 25.4317 77.6448C28.5031 77.6448 31.4348 76.5744 33.7616 74.6199C34.0408 74.4105 34.2735 74.1779 34.5294 73.9452L35.2275 73.2704L35.9255 73.9452C36.1582 74.1779 36.4141 74.4105 36.6701 74.6199C39.0201 76.5744 41.9519 77.6448 45 77.6448C48.048 77.6448 50.9798 76.5744 53.3298 74.6199C53.5858 74.4105 53.8417 74.1779 54.0744 73.9452L54.7724 73.2704L55.4705 73.9452C55.7264 74.1779 55.9591 74.4105 56.2383 74.6199C58.5651 76.5744 61.4969 77.6448 64.5682 77.6448C67.6163 77.6448 70.548 76.5744 72.8981 74.6199C75.2249 72.6887 76.8304 69.9664 77.3888 66.9648C77.6913 65.2895 76.5744 63.6841 74.8991 63.3583C73.2238 63.0558 71.5951 64.1727 71.2926 65.848C70.9901 67.4302 70.1525 68.8495 68.9193 69.8733C67.7094 70.8971 66.1504 71.4323 64.5682 71.4323C62.9627 71.4323 61.4038 70.8971 60.1939 69.8733C58.9839 68.8728 58.1463 67.4767 57.8438 65.941L57.774 65.592L57.7042 65.4059L57.6577 65.2663C57.6111 65.1267 57.5413 65.0103 57.4948 64.9173C57.4017 64.7544 57.3086 64.6148 57.1923 64.4752L57.0527 64.3123L56.8898 64.1494L56.7037 63.9865C56.5873 63.8935 56.4245 63.7771 56.2849 63.7073C56.1685 63.6375 56.0754 63.591 55.9358 63.5445L55.866 63.4979L55.6334 63.4281L55.3309 63.3583C55.2611 63.3583 55.1913 63.335 55.0982 63.335L54.9121 63.3118H54.6328L54.47 63.335C54.3769 63.335 54.2838 63.3583 54.214 63.3583L54.0279 63.4049L53.8185 63.4514L53.6091 63.5445C53.4927 63.591 53.3764 63.6375 53.26 63.7073C53.1204 63.8004 52.9808 63.8935 52.8412 63.9865L52.7249 64.1029L52.5155 64.3123L52.3526 64.4752C52.2595 64.6148 52.1432 64.7544 52.0734 64.9173C52.0036 65.0103 51.957 65.1267 51.8872 65.2663L51.864 65.3593V65.3826L51.7709 65.6851L51.7244 65.941C51.3986 67.4767 50.5842 68.8728 49.3743 69.8733C48.1411 70.8971 46.6054 71.4323 45 71.4323C43.3945 71.4323 41.8588 70.8971 40.6256 69.8733C39.4157 68.8728 38.6013 67.4767 38.2755 65.941L38.2057 65.592L38.1359 65.3593L38.1127 65.2663C38.0429 65.1267 37.9963 65.0103 37.9265 64.9173C37.8335 64.7544 37.7404 64.6148 37.6473 64.4752L37.4844 64.3123L37.3448 64.1494L37.1587 63.9865C37.0191 63.8935 36.8795 63.7771 36.7399 63.7073C36.6235 63.6375 36.5072 63.591 36.3676 63.5445L36.2978 63.4979L36.1814 63.4514L35.9488 63.4049L35.7859 63.3583C35.7161 63.3583 35.623 63.335 35.5299 63.335L35.3671 63.3118H35.0646L34.9017 63.335C34.8086 63.335 34.7388 63.3583 34.6458 63.3583L34.4829 63.4049L34.2735 63.4747L34.0641 63.5445C33.9245 63.591 33.8081 63.6375 33.715 63.7073C33.5522 63.8004 33.4126 63.8935 33.273 63.9865L33.1566 64.1029L32.9472 64.3123L32.8076 64.4752C32.6913 64.6148 32.5982 64.7544 32.5051 64.9173C32.4586 65.0103 32.3888 65.1267 32.3422 65.2663L32.2492 65.5455L32.1561 65.941C31.8536 67.4767 31.016 68.8728 29.8061 69.8733C28.5961 70.8971 27.0372 71.4323 25.4317 71.4323C23.8495 71.4323 22.2905 70.8971 21.0806 69.8733C19.8474 68.8495 19.0098 67.4302 18.7073 65.848C18.4048 64.1727 16.7761 63.0558 15.1008 63.3583C13.4255 63.6841 12.3086 65.2895 12.6111 66.9648Z" fill="url(#paint0_linear_334_212)"/>
<path d="M83.6013 11.3547H6.37537V18.8237H83.6013V11.3547Z" fill="url(#paint1_linear_334_212)"/>
</g>
<defs>
<linearGradient id="paint0_linear_334_212" x1="96.6546" y1="86.9752" x2="26.0367" y2="25.804" gradientUnits="userSpaceOnUse">
<stop stop-color="#0E42B8"/>
<stop offset="0.568627" stop-color="#1B8CF6"/>
<stop offset="1" stop-color="#65C9FB"/>
</linearGradient>
<linearGradient id="paint1_linear_334_212" x1="100.401" y1="35.3671" x2="11.0755" y2="11.9597" gradientUnits="userSpaceOnUse">
<stop stop-color="#28B1A1"/>
<stop offset="0.6" stop-color="#57DA98"/>
<stop offset="1" stop-color="#9AE974"/>
</linearGradient>
<clipPath id="clip0_334_212">
<rect width="90" height="90" fill="white"/>
</clipPath>
</defs>
</svg>

<svg width="90" height="90" fill="none" xmlns="http://www.w3.org/2000/svg"><g clip-path="url(#a)"><path fill-rule="evenodd" clip-rule="evenodd" d="m62.614 38.16-.117.116-.163.14-.209.232c-.093.14-.186.28-.28.442-.069.093-.115.21-.162.302l-.07.233-.07.233-.023.116-.023.093a6.803 6.803 0 0 1-6.724 5.538 6.85 6.85 0 0 1-4.375-1.559 6.803 6.803 0 0 1-2.327-3.932l-.07-.28-.07-.279-.023-.046-.023-.07c-.07-.14-.116-.256-.186-.349-.07-.163-.186-.303-.28-.442l-.139-.186-.116-.093-.163-.163-.07-.047c-.14-.116-.279-.21-.419-.279a2.345 2.345 0 0 0-.349-.163l-.162-.07-.28-.07-.163-.046c-.07 0-.163-.023-.232-.023l-.186-.024h-.28l-.186.024c-.07 0-.163.023-.233.023l-.325.093-.21.047-.07.046a2.345 2.345 0 0 0-.349.163c-.14.093-.302.186-.418.28l-.14.116-.163.162-.14.14-.046.07c-.116.14-.21.28-.302.442-.047.093-.093.21-.163.349l-.023.07-.117.349-.046.256a6.927 6.927 0 0 1-2.327 3.932 6.85 6.85 0 0 1-4.374 1.559 6.803 6.803 0 0 1-6.725-5.538l-.07-.302-.07-.21-.07-.163c-.023-.093-.092-.209-.139-.325a4.71 4.71 0 0 0-.302-.42l-.14-.185-.163-.14-.163-.163a1.77 1.77 0 0 0-.442-.279c-.116-.07-.233-.116-.326-.163l-.232-.093-.35-.093h-.023c-.093 0-.163-.023-.232-.023l-.186-.024h-.303l-.186.024c-.07 0-.14.023-.233.023l-.326.093-.186.047-.093.046c-.116.047-.232.093-.325.163-.163.093-.303.186-.443.28l-.116.116-.163.14-.163.185-.046.047c-.093.14-.186.28-.28.442-.07.093-.116.21-.162.349l-.07.163-.07.256-.046.256a6.838 6.838 0 0 1-2.35 3.932 6.803 6.803 0 0 1-4.375 1.559 6.849 6.849 0 0 1-4.374-1.559c-1.21-1.024-2.071-2.443-2.35-4.025-.303-1.676-1.931-2.793-3.607-2.49-1.675.303-2.792 1.931-2.49 3.607.56 3.001 2.141 5.7 4.491 7.655a13.003 13.003 0 0 0 8.33 3.025c3.072 0 5.98-1.07 8.33-3.025.256-.21.512-.442.745-.675l.698-.675.698.675c.256.233.512.465.768.675a12.956 12.956 0 0 0 8.33 3.025 13.003 13.003 0 0 0 9.074-3.7l.698-.675.698.675a13.003 13.003 0 0 0 9.074 3.7c3.072 0 5.98-1.07 8.33-3.025a19.9 19.9 0 0 0 .768-.675l.698-.675.675.675c.256.233.512.465.768.675a12.957 12.957 0 0 0 8.33 3.025c3.048 0 5.98-1.07 8.33-3.025a13.042 13.042 0 0 0 4.49-7.655c.303-1.676-.814-3.304-2.49-3.607-1.675-.303-3.303.814-3.606 2.49-.28 1.582-1.14 3.001-2.35 4.025a6.85 6.85 0 0 1-4.374 1.559 6.803 6.803 0 0 1-4.375-1.559 6.838 6.838 0 0 1-2.35-3.932l-.046-.28-.07-.255-.07-.163c-.046-.117-.093-.233-.163-.35-.093-.139-.186-.302-.302-.418l-.093-.117-.14-.162-.186-.163-.047-.047c-.14-.093-.279-.21-.442-.279a2.123 2.123 0 0 0-.325-.163l-.163-.07-.28-.07-.162-.046c-.093 0-.163-.023-.233-.023l-.186-.024h-.303l-.186.024c-.07 0-.14.023-.232.023l-.303.07-.21.07-.092.046c-.117.047-.21.093-.326.163-.163.07-.303.186-.442.28zM12.61 66.964a13.09 13.09 0 0 0 4.49 7.655 13.003 13.003 0 0 0 8.33 3.025 12.91 12.91 0 0 0 8.33-3.025c.28-.21.512-.442.768-.675l.698-.675.699.675a13.003 13.003 0 0 0 9.075 3.7 13.003 13.003 0 0 0 9.073-3.7l.698-.675.699.675c.255.233.488.466.767.675a12.91 12.91 0 0 0 8.33 3.025c3.048 0 5.98-1.07 8.33-3.025a13.09 13.09 0 0 0 4.49-7.655c.303-1.675-.814-3.28-2.489-3.607-1.675-.302-3.304.815-3.606 2.49a6.91 6.91 0 0 1-2.374 4.025c-1.21 1.024-2.769 1.56-4.35 1.56-1.606 0-3.165-.536-4.375-1.56a6.837 6.837 0 0 1-2.35-3.932l-.07-.349-.07-.186-.046-.14c-.047-.14-.117-.256-.163-.349a2.967 2.967 0 0 0-.303-.442l-.14-.163-.162-.163-.186-.163a2.63 2.63 0 0 0-.42-.279 1.604 1.604 0 0 0-.348-.163l-.07-.046-.233-.07-.302-.07c-.07 0-.14-.023-.233-.023l-.186-.023h-.28l-.162.023c-.093 0-.186.023-.256.023l-.186.047-.21.046-.209.093a2.345 2.345 0 0 0-.349.163l-.419.28-.116.116-.21.21-.162.162c-.093.14-.21.28-.28.442-.07.093-.116.21-.186.35l-.023.092v.024l-.093.302-.047.256c-.325 1.536-1.14 2.932-2.35 3.932A6.803 6.803 0 0 1 45 71.433a6.803 6.803 0 0 1-4.374-1.56c-1.21-1-2.025-2.396-2.35-3.932l-.07-.349-.07-.233-.023-.093c-.07-.14-.117-.256-.187-.349-.093-.163-.186-.302-.279-.442l-.163-.163-.14-.163-.185-.163c-.14-.092-.28-.209-.42-.279a1.8 1.8 0 0 0-.371-.163l-.07-.046-.117-.047-.232-.046-.163-.047c-.07 0-.163-.023-.256-.023l-.163-.023h-.302l-.163.023c-.093 0-.163.023-.256.023l-.163.047-.21.07-.209.07c-.14.046-.256.093-.349.162-.163.093-.302.187-.442.28l-.116.116-.21.21-.14.162c-.116.14-.209.28-.302.442-.046.093-.116.21-.163.35l-.093.279-.093.395a6.838 6.838 0 0 1-2.35 3.932c-1.21 1.024-2.769 1.56-4.374 1.56-1.582 0-3.141-.536-4.351-1.56a6.91 6.91 0 0 1-2.374-4.025c-.302-1.675-1.93-2.792-3.606-2.49-1.676.326-2.792 1.932-2.49 3.607z" fill="url(#b)"/><path d="M83.601 11.355H6.375v7.469h77.226v-7.47z" fill="url(#c)"/></g><defs><linearGradient id="b" x1="96.655" y1="86.975" x2="26.037" y2="25.804" gradientUnits="userSpaceOnUse"><stop stop-color="#0E42B8"/><stop offset=".569" stop-color="#1B8CF6"/><stop offset="1" stop-color="#65C9FB"/></linearGradient><linearGradient id="c" x1="100.401" y1="35.367" x2="11.075" y2="11.96" gradientUnits="userSpaceOnUse"><stop stop-color="#28B1A1"/><stop offset=".6" stop-color="#57DA98"/><stop offset="1" stop-color="#9AE974"/></linearGradient><clipPath id="a"><path fill="#fff" d="M0 0h90v90H0z"/></clipPath></defs></svg>
